svgs/thin/arrow-up-from-dotted-line.svg

<svg xmlns="http://www.w3.org/2000/svg" viewBox="0 0 448 512"><!--! Font Awesome Pro 6.3.0 by @fontawesome - https://fontawesome.com License - https://fontawesome.com/license (Commercial License) Copyright 2023 Fonticons, Inc. --><path d="M128 432c-8.836 0-16 7.164-16 16s7.164 16 16 16s16-7.164 16-16S136.8 432 128 432zM224 432c-8.836 0-16 7.164-16 16s7.164 16 16 16s16-7.164 16-16S232.8 432 224 432zM32 432c-8.836 0-16 7.164-16 16s7.164 16 16 16s16-7.164 16-16S40.84 432 32 432zM320 432c-8.836 0-16 7.164-16 16s7.164 16 16 16s16-7.164 16-16S328.8 432 320 432zM416 432c-8.836 0-16 7.164-16 16s7.164 16 16 16s16-7.164 16-16S424.8 432 416 432zM229.7 34.34c-3.125-3.125-8.188-3.125-11.31 0l-152 152C64.78 187.9 64 189.9 64 192s.7813 4.094 2.344 5.656c3.125 3.125 8.188 3.125 11.31 0L216 59.31V344C216 348.4 219.6 352 224 352s8-3.594 8-8V59.31l138.3 138.3c3.125 3.125 8.188 3.125 11.31 0s3.125-8.188 0-11.31L229.7 34.34z"/></svg>

<svg xmlns="http://www.w3.org/2000/svg" viewBox="0 0 448 512"><!-- Font Awesome Pro 6.0.0-alpha2 by @fontawesome - https://fontawesome.com License - https://fontawesome.com/license (Commercial License) --><path d="M128 432C119.164 432 112 439.164 112 448S119.164 464 128 464S144 456.836 144 448S136.836 432 128 432ZM224 432C215.164 432 208 439.164 208 448S215.164 464 224 464S240 456.836 240 448S232.836 432 224 432ZM32 432C23.164 432 16 439.164 16 448S23.164 464 32 464S48 456.836 48 448S40.836 432 32 432ZM320 432C311.164 432 304 439.164 304 448S311.164 464 320 464S336 456.836 336 448S328.836 432 320 432ZM416 432C407.164 432 400 439.164 400 448S407.164 464 416 464S432 456.836 432 448S424.836 432 416 432ZM229.656 34.344C226.531 31.219 221.469 31.219 218.344 34.344L66.344 186.344C64.781 187.906 64 189.938 64 192S64.781 196.094 66.344 197.656C69.469 200.781 74.531 200.781 77.656 197.656L216 59.312V344C216 348.406 219.578 352 224 352S232 348.406 232 344V59.312L370.344 197.656C373.469 200.781 378.531 200.781 381.656 197.656S384.781 189.469 381.656 186.344L229.656 34.344Z"/></svg>
